img/twitter-icon.svg

<svg width="30" height="25" viewBox="0 0 30 25" fill="none" xmlns="http://www.w3.org/2000/svg">
<path id="Path" d="M30 2.95965C28.8962 3.46211 27.71 3.8005 26.465 3.95304C27.7363 3.17243 28.7125 1.9355 29.1712 0.461444C27.9825 1.18437 26.665 1.70991 25.2625 1.99318C24.1412 0.766509 22.54 0 20.77 0C16.7962 0 13.8763 3.80178 14.7738 7.74841C9.66 7.48564 5.125 4.97334 2.08875 1.15489C0.47625 3.99149 1.2525 7.70227 3.9925 9.58137C2.985 9.54804 2.035 9.26477 1.20625 8.79179C1.13875 11.7155 3.1825 14.4509 6.1425 15.0597C5.27625 15.3007 4.3275 15.3571 3.3625 15.1674C4.145 17.6746 6.4175 19.4986 9.1125 19.5498C6.525 21.6302 3.265 22.5595 0 22.1647C2.72375 23.9553 5.96 25 9.435 25C20.8625 25 27.3187 15.1033 26.9287 6.22693C28.1312 5.33608 29.175 4.22477 30 2.95965Z" fill="#333333"/>
</svg>

<svg xmlns="http://www.w3.org/2000/svg" width="30" height="25" fill="none"><path fill="#333" d="M30 2.96c-1.104.502-2.29.84-3.535.993A6.296 6.296 0 0 0 29.171.461a12.145 12.145 0 0 1-3.909 1.532A6.075 6.075 0 0 0 20.77 0c-3.974 0-6.894 3.802-5.996 7.748C9.66 7.486 5.125 4.973 2.089 1.155.476 3.99 1.252 7.702 3.993 9.58a6.014 6.014 0 0 1-2.787-.79c-.067 2.925 1.977 5.66 4.936 6.269a6.02 6.02 0 0 1-2.78.107c.783 2.508 3.056 4.332 5.75 4.383A12.156 12.156 0 0 1 0 22.165 17.112 17.112 0 0 0 9.435 25c11.428 0 17.884-9.897 17.494-18.773A12.713 12.713 0 0 0 30 2.96Z"/></svg>
